outputs/icons/date_time/calendar_rollover_round.svg

<svg xmlns="http://www.w3.org/2000/svg" width="1200" height="1200" fill="none"><path fill="#000" d="M950 200h-50v-50c0-27.614-22.385-50-50-50s-50 22.386-50 50v50H400v-50c0-27.614-22.386-50-50-50s-50 22.386-50 50v50h-50c-55.5 0-99.5 45-99.5 100l-.5 700c0 55 44.5 100 100 100h252.245v-.555c24.065-3.615 42.515-24.375 42.515-49.445s-18.45-45.84-42.515-49.45v-.55H300c-27.5 0-50-22.5-50-50V450h700v250.44l.065.015c1.33 26.425 23.18 47.44 49.935 47.44 27.615 0 50-22.385 50-50V300c0-55-45-100-100-100"/><path fill="#000" d="M1178.655 878.285c7.875-7.875 21.34-2.295 21.34 8.84v162.22c0 6.905-5.6 12.5-12.505 12.5l-162.215-.005c-11.135 0-16.71-13.46-8.835-21.335l46.505-46.51c-74.855-74.855-196.525-74.855-271.38 0-14.05 14.05-25.53 29.805-34.285 46.59-9.66 18.51-27.525 32.565-48.4 32.565-30.205 0-52.23-28.035-40.425-55.835 14.22-33.48 34.15-67.5 56.54-89.89 99.955-99.96 300.04-95.435 400 4.525z"/></svg>

<svg width="1200" height="1200" viewBox="0 0 1200 1200" fill="none" xmlns="http://www.w3.org/2000/svg"><path d="M950 200H900V150C900 122.386 877.615 100 850 100C822.385 100 800 122.386 800 150V200H400V150C400 122.386 377.614 100 350 100C322.386 100 300 122.386 300 150V200H250C194.5 200 150.5 245 150.5 300L150 1000C150 1055 194.5 1100 250 1100H502.245V1099.445C526.31 1095.83 544.76 1075.07 544.76 1050C544.76 1024.93 526.31 1004.16 502.245 1000.55V1000H300C272.5 1000 250 977.5 250 950V450H950V700.44L950.065 700.455C951.395 726.88 973.245 747.895 1000 747.895C1027.615 747.895 1050 725.51 1050 697.895V300C1050 245 1005 200 950 200Z" fill="black"/><path d="M1178.655 878.285C1186.53 870.41 1199.995 875.99 1199.995 887.125L1199.995 1049.345C1199.995 1056.25 1194.395 1061.845 1187.49 1061.845L1025.275 1061.84C1014.14 1061.84 1008.565 1048.38 1016.44 1040.505L1062.945 993.995C988.09 919.14 866.42 919.14 791.565 993.995C777.515 1008.045 766.035 1023.8 757.28 1040.585C747.62 1059.095 729.755 1073.15 708.88 1073.15C678.675 1073.15 656.65 1045.115 668.455 1017.315C682.675 983.835 702.605 949.815 724.995 927.425C824.95 827.465 1025.035 831.99 1124.995 931.95L1178.655 878.285Z" fill="black"/></svg>
